assets/misc-grey/MiscGrey81.svg

<svg width="36" height="37" viewBox="0 0 36 37" fill="none" xmlns="http://www.w3.org/2000/svg">
<path fill-rule="evenodd" clip-rule="evenodd" d="M25.75 3.56299H31.36C32.19 3.56299 32.86 2.89099 32.86 2.06299C32.86 1.23399 32.19 0.562988 31.36 0.562988H21.61C20.78 0.562988 20.11 1.23399 20.11 2.06299V12.406C20.11 13.235 20.78 13.906 21.61 13.906C22.44 13.906 23.11 13.235 23.11 12.406V5.70099C28.77 7.78599 32.65 13.274 32.65 19.366C32.65 27.396 26.12 33.928 18.09 33.928C10.06 33.928 3.53003 27.396 3.53003 19.366C3.53003 13.213 7.42003 7.69699 13.21 5.63899C13.99 5.36199 14.4 4.50399 14.12 3.72399C13.85 2.94199 12.99 2.53399 12.21 2.81199C5.22003 5.29399 0.530029 11.947 0.530029 19.366C0.530029 29.05 8.41003 36.928 18.09 36.928C27.77 36.928 35.65 29.05 35.65 19.366C35.65 12.61 31.7 6.46299 25.75 3.56299Z" fill="#1A1919"/>
</svg>

<svg xmlns="http://www.w3.org/2000/svg" viewBox="0 0 36 37"><path fill-rule="evenodd" d="M25.75 3.563h5.61a1.5 1.5 0 100-3h-9.75c-.83 0-1.5.671-1.5 1.5v10.343c0 .829.67 1.5 1.5 1.5s1.5-.671 1.5-1.5V5.701c5.66 2.085 9.54 7.573 9.54 13.665 0 8.03-6.53 14.562-14.56 14.562-8.03 0-14.56-6.532-14.56-14.562 0-6.153 3.89-11.669 9.68-13.727a1.497 1.497 0 00.91-1.915 1.49 1.49 0 00-1.91-.912C5.22 5.294.53 11.947.53 19.366c0 9.684 7.88 17.562 17.56 17.562s17.56-7.878 17.56-17.562c0-6.756-3.95-12.903-9.9-15.803z" clip-rule="evenodd"/></svg>
